icons/mobile/24/svg/clipboard-24.svg

<svg width="24" height="24" viewBox="0 0 24 24" fill="none" xmlns="http://www.w3.org/2000/svg">
<path d="M12.125 14.5C12.6082 14.5 13 14.8918 13 15.375C13 15.8582 12.6082 16.25 12.125 16.25H9.875C9.39175 16.25 9 15.8582 9 15.375C9 14.8918 9.39175 14.5 9.875 14.5H12.125Z" fill="black"/>
<path d="M15.125 11C15.6082 11 16 11.3918 16 11.875C16 12.3582 15.6082 12.75 15.125 12.75H9.875C9.39175 12.75 9 12.3582 9 11.875C9 11.3918 9.39175 11 9.875 11H15.125Z" fill="black"/>
<path fill-rule="evenodd" clip-rule="evenodd" d="M12.5 1C14.0742 1 15.4362 1.91126 16.0889 3.23438C16.5153 3.28434 16.9447 3.32057 17.3682 3.38867C18.894 3.63569 19.9998 4.93478 20 6.47754V18.4824C19.9998 20.0412 18.8929 21.3525 17.3701 21.6025C15.7651 21.8645 14.126 21.999 12.5 21.999C10.857 21.999 9.20291 21.8637 7.58691 21.5957C6.08809 21.3487 5.00016 20.0412 5 18.4854V6.47363C5.00017 4.93387 6.08909 3.63955 7.58887 3.39648C8.026 3.32544 8.46902 3.28629 8.91016 3.23438C9.56271 1.91105 10.9256 1 12.5 1ZM16.5 6.5C16.5 7.328 15.828 8 15 8H10C9.172 8 8.5 7.328 8.5 6.5V5.0459C8.29103 5.07589 8.07907 5.08906 7.87109 5.12305C7.23122 5.22803 6.75019 5.80777 6.75 6.47461V18.4854C6.75016 19.1692 7.23218 19.7651 7.87207 19.8701C10.9 20.3711 14.047 20.3739 17.0869 19.877C17.7608 19.766 18.2498 19.1792 18.25 18.4824V6.47656C18.2498 5.79775 17.7617 5.22516 17.0889 5.11719C16.8939 5.0852 16.696 5.07389 16.5 5.0459V6.5ZM12.5 3.5C11.9477 3.5 11.5 3.94772 11.5 4.5C11.5 5.05228 11.9477 5.5 12.5 5.5C13.0523 5.5 13.5 5.05228 13.5 4.5C13.5 3.94772 13.0523 3.5 12.5 3.5Z" fill="black"/>
</svg>

<!-- This Source Code Form is subject to the terms of the Mozilla Public
   - License, v. 2.0. If a copy of the MPL was not distributed with this
   - file, You can obtain one at http://mozilla.org/MPL/2.0/. -->
<svg xmlns="http://www.w3.org/2000/svg" width="24" height="24" fill="none" viewBox="0 0 24 24">
    <path fill="#000" d="M12.125 14.5a.875.875 0 0 1 0 1.75h-2.25a.875.875 0 0 1 0-1.75zm3-3.5a.875.875 0 0 1 0 1.75h-5.25a.875.875 0 0 1 0-1.75z" />
    <path fill="#000" fill-rule="evenodd" d="M12.5 1c1.574 0 2.936.911 3.589 2.234.426.05.856.087 1.28.155A3.12 3.12 0 0 1 20 6.478v12.004a3.14 3.14 0 0 1-2.63 3.12 30.1 30.1 0 0 1-9.783-.007C6.088 21.35 5 20.042 5 18.486V6.474c0-1.54 1.09-2.834 2.589-3.078.437-.07.88-.11 1.321-.162A4 4 0 0 1 12.5 1m4 5.5A1.5 1.5 0 0 1 15 8h-5a1.5 1.5 0 0 1-1.5-1.5V5.046c-.209.03-.42.043-.629.077-.64.105-1.12.685-1.121 1.352v12.01c0 .684.482 1.28 1.122 1.385a28.6 28.6 0 0 0 9.215.007 1.4 1.4 0 0 0 1.163-1.395V6.477c0-.68-.488-1.252-1.161-1.36-.195-.032-.393-.043-.589-.071zm-4-3a1 1 0 1 0 0 2 1 1 0 0 0 0-2" clip-rule="evenodd" />
</svg>
